packages/katcn/src/icons/svg/disconnect.svg

<svg width="24" height="24" viewBox="0 0 24 24" fill="none" xmlns="http://www.w3.org/2000/svg">
<path d="M5 14.3C5.2 14.6 5.5 14.7 5.8 14.7C6 14.7 6.2 14.6 6.4 14.5C6.8 14.2 6.9 13.5 6.6 13.1C4.8 10.9 3.8 8.7 3.2 7.3C2.8 6.3 3 5.2 3.8 4.5L5 3.2C5.2 3.1 5.4 3 5.7 3C6 3 6.2 3.2 6.3 3.4L8.4 7C8.6 7.3 8.5 7.7 8.3 8L7.3 8.9C7 9.3 6.9 9.7 7.1 10.1C7.3 10.5 7.6 10.9 7.9 11.3C8.2 11.7 8.8 11.9 9.3 11.5C9.7 11.2 9.9 10.6 9.5 10.1C9.4 10.1 9.3 9.9 9.3 9.8L9.7 9.4C10.5 8.5 10.7 7.1 10.1 6L8 2.4C7.6 1.6 6.8 1.1 5.9 0.999999C5.1 0.899999 4.2 1.2 3.6 1.8L2.4 3C1 4.4 0.6 6.3 1.3 8C2 9.6 3.1 11.9 5 14.3Z" fill="black"/>
<path d="M22.9811 18.1C22.8812 17.2 22.3816 16.5 21.5823 16L17.9854 13.9C16.8863 13.3 15.4875 13.5 14.5883 14.3L14.1886 14.7C13.4892 14.3 12.7898 13.7 12.1904 13.1L22.6813 2.7C23.081 2.3 23.081 1.7 22.6813 1.3C22.2817 0.9 21.6822 0.9 21.2825 1.3L10.0922 12.5L7.19466 15.4L1.29974 21.3C0.900086 21.7 0.900086 22.3 1.29974 22.7C1.49957 22.9 1.6994 23 1.99914 23C2.29888 23 2.49871 22.9 2.69854 22.7L7.89406 17.5C10.7916 20.2 13.789 21.8 15.9871 22.6C16.5866 22.8 17.1861 22.9 17.6856 22.9C18.8846 22.9 20.0836 22.4 20.9828 21.5L22.1818 20.3C22.7812 19.8 23.081 18.9 22.9811 18.1ZM20.783 19L19.584 20.2C18.8846 20.9 17.6856 21.2 16.7864 20.8C14.7881 20 11.9905 18.5 9.39277 16.1L10.8915 14.6C11.8906 15.5 12.9897 16.3 13.9888 16.9C14.3885 17.1 14.888 17.1 15.1878 16.7L16.087 15.8C16.3867 15.5 16.7864 15.5 17.0861 15.7L20.683 17.8C20.8829 17.9 21.0827 18.1 21.0827 18.4C20.9828 18.6 20.8829 18.8 20.783 19Z" fill="black"/>
</svg>

<svg xmlns="http://www.w3.org/2000/svg" fill="none" viewBox="0 0 24 24"><path fill="#000" d="M5 14.3c.2.3.5.4.8.4.2 0 .4-.1.6-.2.4-.3.5-1 .2-1.4-1.8-2.2-2.8-4.4-3.4-5.8-.4-1-.2-2.1.6-2.8L5 3.2c.2-.1.4-.2.7-.2s.5.2.6.4L8.4 7c.2.3.1.7-.1 1l-1 .9c-.3.4-.4.8-.2 1.2s.5.8.8 1.2.9.6 1.4.2c.4-.3.6-.9.2-1.4-.1 0-.2-.2-.2-.3l.4-.4c.8-.9 1-2.3.4-3.4L8 2.4C7.6 1.6 6.8 1.1 5.9 1c-.8-.1-1.7.2-2.3.8L2.4 3C1 4.4.6 6.3 1.3 8 2 9.6 3.1 11.9 5 14.3m17.981 3.8c-.1-.9-.6-1.6-1.399-2.1l-3.597-2.1c-1.099-.6-2.497-.4-3.397.4l-.4.4c-.699-.4-1.398-1-1.998-1.6L22.681 2.7c.4-.4.4-1 0-1.4s-.999-.4-1.399 0l-11.19 11.2-2.897 2.9L1.3 21.3c-.4.4-.4 1 0 1.4.2.2.4.3.7.3s.499-.1.699-.3l5.195-5.2c2.898 2.7 5.895 4.3 8.093 5.1.6.2 1.2.3 1.699.3 1.199 0 2.398-.5 3.297-1.4l1.199-1.2c.6-.5.899-1.4.8-2.2m-2.198.9-1.199 1.2c-.7.7-1.898 1-2.798.6-1.998-.8-4.796-2.3-7.393-4.7l1.499-1.5c.999.9 2.098 1.7 3.097 2.3.4.2.899.2 1.199-.2l.899-.9c.3-.3.7-.3 1-.1l3.596 2.1c.2.1.4.3.4.6z"/></svg>
